flaticon/productivity-and-development/map.svg

<svg xmlns="http://www.w3.org/2000/svg" width="32" height="32" viewBox="0 0 24 24">
    <path d="M 23.695312 3.40625 L 16.035156 0.0429688 C 16.007812 0.03125 15.832031 -0.046875 15.625 0.0429688 L 8.171875 3.316406 L 0.71875 0.0429688 C 0.503906 -0.0429688 0 0.03125 0 0.511719 L 0 20.125 C 0 20.328125 0.121094 20.511719 0.304688 20.59375 L 7.964844 23.953125 C 8.175781 24.046875 8.359375 23.960938 8.375 23.953125 L 15.828125 20.683594 L 23.28125 23.953125 C 23.734375 24.132812 24 23.746094 24 23.488281 L 24 3.871094 C 24 3.671875 23.878906 3.488281 23.695312 3.40625 Z M 7.660156 22.707031 L 1.023438 19.792969 L 1.023438 1.292969 L 7.660156 4.207031 Z M 15.320312 19.792969 L 8.679688 22.707031 L 8.679688 4.207031 L 15.320312 1.292969 Z M 22.976562 22.707031 L 16.339844 19.792969 L 16.339844 1.292969 L 22.976562 4.207031 Z M 22.976562 22.707031"/>
</svg>

<svg xmlns="http://www.w3.org/2000/svg" width="32" height="32" viewBox="0 0 24 24">
    <path d="M23.695 3.406L16.035.043c-.027-.012-.203-.09-.41 0L8.172 3.316.719.043C.504-.043 0 .031 0 .512v19.613c0 .203.121.387.305.469l7.66 3.36c.21.093.394.007.41 0l7.453-3.27 7.453 3.27c.453.179.719-.208.719-.466V3.871c0-.2-.121-.383-.305-.465zM7.66 22.707l-6.637-2.914v-18.5L7.66 4.207zm7.66-2.914l-6.64 2.914v-18.5l6.64-2.914zm7.657 2.914l-6.637-2.914v-18.5l6.637 2.914zm0 0"/>
</svg>
